icons/solid/cog.svg

<svg width="24" height="24" viewBox="0 0 24 24" fill="none" xmlns="http://www.w3.org/2000/svg">
<path fill-rule="evenodd" clip-rule="evenodd" d="M11 2C9.89543 2 9 2.89543 9 4V4.75733L8.29289 5.46444L9 4.75733L8.4645 4.22184C7.68346 3.44079 6.41712 3.44079 5.63608 4.22184L4.22186 5.63605C3.44081 6.4171 3.44081 7.68343 4.22186 8.46448L4.75739 9H4C2.89543 9 2 9.89543 2 11V13C2 14.1046 2.89543 15 4 15H4.75739L4.22185 15.5355C3.4408 16.3166 3.4408 17.5829 4.22185 18.364L5.63606 19.7782C6.41711 20.5592 7.68344 20.5592 8.46449 19.7782L7.75738 19.0711L8.46449 19.7782L9 19.2427V20C9 21.1046 9.89543 22 11 22H13C14.1046 22 15 21.1046 15 20V19.2426L15.5356 19.7782C16.3166 20.5592 17.583 20.5592 18.364 19.7782L19.7782 18.364C20.5593 17.5829 20.5593 16.3166 19.7782 15.5355L19.2427 15H20C21.1046 15 22 14.1046 22 13V11C22 9.89543 21.1046 9 20 9L19.2427 9L19.7782 8.46447C20.5592 7.68343 20.5592 6.4171 19.7782 5.63605L18.364 4.22183C17.5829 3.44078 16.3166 3.44078 15.5356 4.22183L15 4.75739V4C15 2.89543 14.1046 2 13 2H11ZM16 12C16 14.2091 14.2091 16 12 16C9.79086 16 8 14.2091 8 12C8 9.79086 9.79086 8 12 8C14.2091 8 16 9.79086 16 12ZM12 14C13.1046 14 14 13.1046 14 12C14 10.8954 13.1046 10 12 10C10.8954 10 10 10.8954 10 12C10 13.1046 10.8954 14 12 14Z" fill="currentColor"/>
</svg>

<svg width="24" height="24" fill="none" xmlns="http://www.w3.org/2000/svg"><path fill-rule="evenodd" clip-rule="evenodd" d="M11 2a2 2 0 00-2 2v.757l-.707.707L9 4.757l-.536-.535a2 2 0 00-2.828 0L4.222 5.636a2 2 0 000 2.828L4.757 9H4a2 2 0 00-2 2v2a2 2 0 002 2h.757l-.535.536a2 2 0 000 2.828l1.414 1.414a2 2 0 002.828 0l-.707-.707.707.707.536-.535V20a2 2 0 002 2h2a2 2 0 002-2v-.757l.536.535a2 2 0 002.828 0l1.414-1.414a2 2 0 000-2.829L19.243 15H20a2 2 0 002-2v-2a2 2 0 00-2-2h-.757l.535-.536a2 2 0 000-2.828l-1.414-1.414a2 2 0 00-2.828 0L15 4.757V4a2 2 0 00-2-2h-2zm5 10a4 4 0 11-8 0 4 4 0 018 0zm-4 2a2 2 0 100-4 2 2 0 000 4z" fill="currentColor"/></svg>
